svg/arrows_long_down.svg

<svg xmlns="http://www.w3.org/2000/svg" viewBox="0 0 32 32" enable-background="new 0 0 32 32"><path d="M 15 4 L 15 24.0625 L 10.71875 19.78125 L 9.28125 21.1875 L 15.28125 27.1875 L 16 27.90625 L 16.71875 27.1875 L 22.71875 21.1875 L 21.28125 19.78125 L 17 24.0625 L 17 4 L 15 4 z" color="#000" overflow="visible" enable-background="accumulate"/></svg>

<svg xmlns="http://www.w3.org/2000/svg" viewBox="0 0 32 32"><path d="M15 4v20.063l-4.28-4.282-1.44 1.407 6 6 .72.72.72-.72 6-6-1.44-1.406L17 24.063V4h-2z"/></svg>
